; HEADER_BLOCK_START
; generated by Creality_Print V7.0.0.4127 on 2026-01-27 at 23:55:11
; total layer number: 206
; filament_density: 1.27
; filament_diameter: 1.75
; max_z_height: 49.40
; creality_uuid: 5b7ac445-36ab-4e6a-b820-a7685e9b8436
; HEADER_BLOCK_END

; MINX = 121.96
; MINY = 115.83
; MINZ = 0.00
; MAXX = 178.04
; MAXY = 176.34
; MAXZ = 49.48

; multicolor_method = 0 
; THUMBNAIL_BLOCK_START

;
; THUMBNAIL_BLOCK_END

; THUMBNAIL_BLOCK_START

;
; THUMBNAIL_BLOCK_END

; external perimeters extrusion width = 0.42mm
; perimeters extrusion width = 0.45mm
; infill extrusion width = 0.45mm
; solid infill extrusion width = 0.42mm
; top infill extrusion width = 0.42mm
; support material extrusion width = 0.40mm
; first layer extrusion width = 0.50mm

; EXECUTABLE_BLOCK_START
EXCLUDE_OBJECT_DEFINE NAME=Корпус_V2.stp_id_0_copy_0 CENTER=150,146.089 POLYGON=[[174.296,115.842],[174.548,115.861],[174.798,115.894],[175.166,115.966],[175.524,116.066],[175.756,116.148],[176.09,116.292],[176.302,116.403],[176.604,116.588],[176.883,116.795],[177.137,117.023],[177.29,117.186],[177.496,117.443],[177.671,117.715],[177.813,117.999],[177.922,118.293],[177.995,118.593],[178.033,118.898],[178.039,119.103],[178.038,173.177],[178.025,173.381],[177.975,173.685],[177.922,173.885],[177.853,174.081],[177.722,174.369],[177.616,174.555],[177.496,174.734],[177.29,174.992],[177.137,175.154],[176.971,175.308],[176.7,175.523],[176.506,175.654],[176.302,175.775],[176.09,175.885],[175.869,175.984],[175.641,176.072],[175.406,176.148],[175.166,176.211],[174.921,176.263],[174.548,176.316],[174.296,176.336],[174.044,176.342],[125.83,176.341],[125.452,176.316],[125.079,176.263],[124.714,176.181],[124.359,176.072],[124.02,175.936],[123.803,175.831],[123.594,175.715],[123.3,175.523],[123.029,175.308],[122.785,175.074],[122.569,174.822],[122.384,174.555],[122.23,174.274],[122.111,173.984],[122.025,173.685],[121.975,173.381],[121.961,173.075],[121.962,119],[121.975,118.796],[122.005,118.593],[122.05,118.392],[122.147,118.096],[122.23,117.903],[122.384,117.623],[122.504,117.443],[122.71,117.186],[122.945,116.945],[123.117,116.795],[123.3,116.655],[123.494,116.524],[123.698,116.403],[124.02,116.241],[124.244,116.148],[124.476,116.066],[124.834,115.966],[125.079,115.915],[125.327,115.876],[125.578,115.85],[125.83,115.837],[174.17,115.837],[174.296,115.842]]
M73 P0 R38
M106 S0
M106 P2 S0
; max_print_temp = 70,250
;TYPE:Custom
M141 S35;set chamber_temperature
START_PRINT EXTRUDER_TEMP=250 BED_TEMP=70
T0
M204 S2000
M104 S250
G1 Z3 F600
M83
G92 E0
G1 Z1 F600
G90
G21
M83 ; use relative distances for extrusion
G1 E-.8 F1800
G1 Z.2 F30000
M106 S0
;LAYER_CHANGE
;:0.2
;HEIGHT:0.2
;BEFORE_LAYER_CHANGE
;0.2
G92 E0
;TIME_ELAPSED:40.228207
;AFTER_LAYER_CHANGE
;0.2
;_SET_FAN_SPEED_CHANGING_LAYER
SET_VELOCITY_LIMIT ACCEL=1000 ACCEL_TO_DECEL=1000
SET_VELOCITY_LIMIT SQUARE_CORNER_VELOCITY=20
; OBJECT_ID: 74
; printing object Корпус V2.stp id:0 copy 0
EXCLUDE_OBJECT_START NAME=Корпус_V2.stp_id_0_copy_0
G1 X125.023 Y119.819 Z.6 F30000
G1 Z.2
G1 E.8 F1800
;TYPE:Support
;WIDTH:0.5
G1 F3600
G1 X125.947 Y120.344 E.03834
G3 X128.685 Y120.337 I1.374 J2.062 E.10477
G3 X130.425 Y120.861 I-1.106 J6.821 E.06578
G3 X131.868 Y121.162 I-.19 J4.52 E.05347
G3 X136.237 Y129.978 I1.461 J4.767 E.50689
G1 X134.525 Y129.978 E.06183
G2 X134.261 Y130.77 I.264 J.528 E.03348
G3 X128.971 Y128.135 I-.832 J-4.957 E.22811
G3 X126.886 Y126.133 I2.072 J-4.244 E.10608
G3 X125.396 Y126.04 I-.577 J-2.752 E.05454
G3 X120.312 Y122.206 I-2.467 J-2.017 E.35241
G1 X120.029 Y121.814 E.01746
G1 X121.51 Y121.005 E.06094
G3 X124.956 Y119.804 I2.56 J1.799 E.1407
G1 E-.8 F1800
G1 Z.6 F30000
G1 X135.582 Y121.889 Z.6
G1 Z.2
G1 E.8 F1800
G1 F3600
G2 X135.272 Y121.721 I-.591 J.721 E.01282
G1 X135.272 Y129.566 E.28326
G1 X135.78 Y129.566 E.01834
G1 X135.78 Y122.004 E.27304
G3 X136.288 Y122.361 I-.672 J1.496 E.02255
G1 X136.288 Y129.41 E.25452
G2 X136.795 Y128.939 I-.971 J-1.557 E.02515
G1 X136.795 Y122.831 E.22056
G3 X137.303 Y123.508 I-1.505 J1.658 E.03074
G1 X137.303 Y128.262 E.17165
G3 X136.937 Y128.76 I-1.48 J-.706 E.02246
G1 X134.444 Y129.566 F30000
G1 F3600
G1 X134.764 Y129.566 E.01155
G1 X134.764 Y121.544 E.28967
G2 X134.256 Y121.417 I-.582 J1.253 E.01901
G1 X134.256 Y129.665 E.29779
G2 X133.85 Y130.414 I.172 J.578 E.03421
G1 X133.748 Y130.429 E.0037
G1 X133.748 Y121.342 E.32809
G2 X133.24 Y121.346 I-.245 J1.317 E.01845
G1 X133.24 Y130.426 E.32785
G3 X132.733 Y130.394 I-.171 J-1.335 E.01848
G1 X132.733 Y121.378 E.32554
G1 X132.225 Y121.5 E.01886
G1 X132.225 Y130.272 E.31675
G3 X131.717 Y130.104 I.184 J-1.402 E.01944
G1 X131.717 Y121.547 E.30894
G2 X131.209 Y121.373 I-1.181 J2.611 E.01942
G1 X131.209 Y129.874 E.30694
G3 X130.701 Y129.53 I.637 J-1.489 E.02227
G1 X130.701 Y121.272 E.29816
G3 X130.193 Y121.226 I-.154 J-1.11 E.01858
G1 X130.193 Y129.089 E.2839
G3 X129.685 Y128.483 I1.316 J-1.618 E.02872
G1 X129.685 Y121.047 E.26847
G1 X129.396 Y120.897 E.01176
G1 X129.561 Y128.291 F30000
G1 F3600
G2 X129.177 Y127.779 I-.639 J.079 E.02418
G1 X129.177 Y120.839 E.25057
G1 X128.67 Y120.752 E.0186
G1 X128.67 Y127.516 E.24423
G3 X128.162 Y127.143 I.499 J-1.211 E.02299
G1 X128.162 Y120.504 E.2397
G3 X128.458 Y120.681 I-.093 J.492 E.01272
G1 X126.859 Y125.714 F30000
G1 F3600
G1 X127.146 Y125.767 E.01052
G1 X127.146 Y120.358 E.19529
G3 X127.654 Y120.37 I.237 J.771 E.01866
G1 X127.654 Y126.612 E.22538
G1 X127.264 Y125.963 E.02733
G1 X126.331 Y120.603 F30000
G1 F3600
G1 X126.638 Y120.434 E.01265
G1 X126.638 Y125.772 E.19272
G3 X126.13 Y125.777 I-.26 J-.639 E.01878
G1 X126.13 Y120.712 E.18286
G1 X125.943 Y120.815 E.00772
G1 X125.622 Y120.633 E.0133
G1 X125.622 Y125.695 E.18278
G1 X125.302 Y125.52 E.01317
G1 X125.115 Y125.737 E.01036
G1 X125.115 Y120.344 E.19471
G2 X124.607 Y120.145 I-.591 J.758 E.01998
G1 X124.607 Y126.243 E.22018
G3 X124.099 Y126.571 I-.827 J-.723 E.02211
G1 X124.099 Y120.057 E.23517
G2 X123.591 Y120.071 I-.224 J1.106 E.0185
G1 X123.591 Y126.737 E.24066
G1 X123.882 Y126.642 E.01104
G1 X122.769 Y120.35 F30000
G1 F3600
G3 X123.083 Y120.198 I.437 J.502 E.01274
G1 X123.083 Y126.814 E.23887
G3 X122.575 Y126.811 I-.23 J-4.39 E.01835
G1 X122.575 Y120.469 E.22897
G2 X122.067 Y120.885 I.342 J.936 E.02415
G1 X122.067 Y126.686 E.20944
G3 X121.56 Y126.455 I.149 J-1.002 E.0204
G1 X121.56 Y121.447 E.18084
G1 X121.052 Y121.724 E.0209
G1 X121.052 Y126.097 E.15786
G3 X120.544 Y125.463 I1.597 J-1.801 E.02945
G1 X120.544 Y122.644 E.10179
G1 X120.796 Y122.175 E.01924
G1 X120.635 Y121.952 E.00991
G1 X120.851 Y121.834 E.00888
G1 E-.8 F1800
G1 Z.6 F30000
G1 X138.275 Y163.102 Z.6
G1 Z.2
G1 E.8 F1800
G1 F3600
G3 X137.324 Y163.086 I-.567 J5.137 E1.13807
G1 X138.207 Y163.101 E.03186
G1 X141.503 Y165.378 F30000
G1 F3600
G3 X141.874 Y165.926 I-1.296 J1.279 E.02403
G1 X141.874 Y170.644 E.17038
G3 X141.366 Y171.375 I-2.232 J-1.009 E.03232
G1 X141.366 Y165.194 E.22317
G2 X140.858 Y164.687 I-1.626 J1.121 E.02605
G1 X140.858 Y171.882 E.25978
G3 X140.351 Y172.269 I-1.301 J-1.181 E.02318
G1 X140.351 Y164.301 E.28771
G2 X139.843 Y163.992 I-1.09 J1.22 E.02159
G1 X139.843 Y172.578 E.31003
G1 X139.335 Y172.783 E.01977
G1 X139.335 Y163.787 E.32482
G2 X138.827 Y163.634 I-.667 J1.298 E.01925
G1 X138.827 Y172.936 E.33583
G1 X138.319 Y173.039 E.01871
G1 X138.319 Y163.531 E.34328
G2 X137.811 Y163.506 I-.323 J1.362 E.01846
G1 X137.811 Y173.064 E.34512
G3 X137.303 Y173.064 I-.253 J-1.375 E.01844
G1 X137.303 Y163.506 E.34509
G1 X136.795 Y163.591 E.01859
G1 X136.795 Y172.979 E.33899
G3 X136.288 Y172.855 I.083 J-1.437 E.01898
G1 X136.288 Y163.715 E.33001
G1 X135.78 Y163.899 E.0195
G1 X135.78 Y172.671 E.31672
G3 X135.272 Y172.398 I.484 J-1.511 E.02093
G1 X135.272 Y164.172 E.29703
G2 X134.764 Y164.506 I.907 J1.932 E.02202
G1 X134.764 Y172.059 E.27273
G1 X134.256 Y171.62 E.02424
G1 X134.256 Y164.953 E.2407
G2 X133.748 Y165.582 I1.737 J1.923 E.0293
G1 X133.748 Y170.988 E.19518
G3 X133.24 Y170.017 I6.957 J-4.259 E.03958
G1 X133.24 Y166.552 E.1251
G3 X133.629 Y165.776 I3.09 J1.062 E.03144
G1 E-.8 F1800
G1 Z.6 F30000
G1 X149.03 Y162.577 Z.6
G1 Z.2
G1 E.8 F1800
G1 F3600
G3 X147.542 Y162.73 I-.216 J5.188 E1.12379
G3 X148.961 Y162.577 I1.171 J4.186 E.05176
G1 X144.798 Y170.306 F30000
G1 F3600
G3 X144.413 Y169.551 I2.623 J-1.812 E.03068
G1 X144.413 Y165.996 E.12838
G3 X144.921 Y165.049 I7.282 J3.299 E.03881
G1 X144.921 Y170.498 E.19672
G2 X145.429 Y171.123 I1.947 J-1.062 E.02925
G1 X145.429 Y164.424 E.24189
G1 X145.937 Y163.984 E.02424
G1 X145.937 Y171.562 E.27361
G2 X146.445 Y171.897 I1.159 J-1.207 E.02208
G1 X146.445 Y163.65 E.29775
G3 X146.953 Y163.381 I.981 J1.24 E.02086
G1 X146.953 Y172.166 E.31716
G1 X147.461 Y172.35 E.0195
G1 X147.461 Y163.197 E.33045
G3 X147.969 Y163.076 I.581 J1.314 E.01896
G1 X147.969 Y172.471 E.33919
G1 X148.476 Y172.555 E.01859
G1 X148.476 Y162.992 E.3453
G3 X148.984 Y162.988 I.265 J1.524 E.01842
G1 X148.984 Y172.552 E.34533
G2 X149.492 Y172.524 I.176 J-1.389 E.01847
G1 X149.492 Y163.023 E.34303
G1 X150 Y163.126 E.01871
G1 X150 Y172.42 E.33558
G2 X150.508 Y172.265 I-.168 J-1.452 E.01929
G1 X150.508 Y163.282 E.32432
G1 X151.016 Y163.487 E.01977
G1 X151.016 Y172.06 E.30954
G2 X151.524 Y171.747 I-.593 J-1.531 E.02166
G1 X151.524 Y163.8 E.28693
G3 X152.031 Y164.192 I-.806 J1.57 E.02329
G1 X152.031 Y171.358 E.25873
G2 X152.539 Y170.841 I-2.638 J-3.101 E.02619
G1 X152.539 Y164.706 E.22152
G3 X153.047 Y165.449 I-1.756 J1.746 E.03267
G1 X153.047 Y170.098 E.16788
G3 X152.676 Y170.658 I-1.7 J-.726 E.02438
G1 E-.8 F1800
G1 Z.6 F30000
G1 X161.697 Y162.875 Z.6
G1 Z.2
G1 E.8 F1800
G1 F3600
G3 X160.746 Y162.858 I-.567 J5.137 E1.13807
G1 X161.628 Y162.873 E.03186
G1 X164.864 Y165.069 F30000
G1 F3600
G3 X165.236 Y165.576 I-1.184 J1.258 E.0228
G1 X165.236 Y170.539 E.1792
G3 X164.728 Y171.228 I-2.12 J-1.029 E.0311
G1 X164.728 Y164.886 E.229
G2 X164.22 Y164.404 I-1.558 J1.133 E.02542
G1 X164.22 Y171.71 E.26381
G3 X163.712 Y172.08 I-1.253 J-1.19 E.0228
G1 X163.712 Y164.035 E.29046
G2 X163.205 Y163.74 I-1.053 J1.227 E.02133
G1 X163.205 Y172.375 E.31178
G1 X162.697 Y172.579 E.01977
G1 X162.697 Y163.535 E.32656
G2 X162.189 Y163.394 I-.634 J1.304 E.01913
G1 X162.189 Y172.72 E.33671
G1 X161.681 Y172.823 E.01871
G1 X161.681 Y163.291 E.34416
G2 X161.173 Y163.277 I-.293 J1.367 E.01845
G1 X161.173 Y172.838 E.3452
G3 X160.665 Y172.826 I-.223 J-1.38 E.01844
G1 X160.665 Y163.288 E.34437
G1 X160.157 Y163.373 E.01859
G1 X160.157 Y172.742 E.33827
G3 X159.649 Y172.605 I.114 J-1.442 E.01909
G1 X159.649 Y163.509 E.32844
G1 X159.142 Y163.693 E.0195
G1 X159.142 Y172.421 E.31515
G3 X158.634 Y172.135 I.52 J-1.517 E.02116
G1 X158.634 Y163.979 E.29449
G2 X158.126 Y164.326 I.951 J1.939 E.02228
G1 X158.126 Y171.779 E.26913
G3 X157.618 Y171.32 I.991 J-1.604 E.02488
G1 X157.618 Y164.795 E.23558
G2 X157.11 Y165.438 I1.487 J1.696 E.02976
G1 X157.11 Y170.676 E.18912
G3 X156.602 Y169.63 I3.648 J-2.417 E.04212
G1 X156.602 Y166.485 E.11356
G3 X157.002 Y165.64 I3.351 J1.069 E.03385
G1 E-.8 F1800
G1 Z.6 F30000
G1 X176.589 Y119.562 Z.6
G1 Z.2
G1 E.8 F1800
G1 F3600
G3 X178.515 Y121.387 I-.943 J2.924 E.09905
G3 X174.453 Y126.221 I-1.809 J2.604 E.38067
G3 X173.171 Y125.875 I-.204 J-1.789 E.04908
G3 X170.67 Y128.643 I-3.946 J-1.051 E.1399
G3 X165.739 Y130.876 I-4.237 J-2.795 E.20615
G2 X165.475 Y129.978 I-.581 J-.317 E.03755
G1 X163.579 Y129.978 E.06846
G3 X167.837 Y121.184 I2.985 J-3.982 E.49535
G3 X169.233 Y120.861 I1.396 J2.851 E.05222
G3 X171.699 Y120.142 I2.264 J3.176 E.09448
G3 X173.863 Y120.117 I1.123 J3.582 E.07927
G3 X176.522 Y119.548 I2.089 J3.265 E.10032
G1 X179.086 Y125.43 F30000
G1 F3600
G2 X178.948 Y122.371 I-2.816 J-1.406 E.1155
G1 X178.948 Y125.611 E.11701
G3 X178.44 Y126.149 I-1.267 J-.688 E.027
G1 X178.44 Y121.833 E.15585
G3 X178.801 Y122.196 I-.453 J.811 E.01872
G1 X176.706 Y120.044 F30000
G1 F3600
G2 X176.409 Y119.945 I-.459 J.881 E.01136
G1 X176.409 Y126.76 E.24607
G2 X176.917 Y126.745 I.227 J-.894 E.01859
G1 X176.917 Y120.131 E.23878
G3 X177.425 Y120.476 I-.558 J1.368 E.02232
G1 X177.425 Y126.659 E.22325
G2 X177.933 Y126.488 I-.075 J-1.061 E.01956
G1 X177.933 Y121.1 E.19454
G2 X177.59 Y120.634 I-2.64 J1.584 E.02091
G1 X175.591 Y126.533 F30000
G1 F3600
G2 X175.901 Y126.634 I.332 J-.49 E.01192
G1 X175.901 Y119.852 E.24488
G1 X175.393 Y119.889 E.01838
G1 X175.393 Y126.419 E.23578
G3 X174.885 Y126.077 I.343 J-1.057 E.0224
G1 X174.885 Y120.03 E.21832
G2 X174.378 Y120.291 I.314 J1.238 E.02078
G1 X174.378 Y125.798 E.19883
G1 X173.87 Y125.735 E.01848
G1 X173.87 Y120.547 E.18732
G1 X173.362 Y120.402 E.01906
G1 X173.362 Y125.51 E.18442
G1 X172.944 Y125.282 E.01718
G1 X172.854 Y125.538 E.00981
G1 X172.854 Y120.292 E.1894
G1 X172.346 Y120.356 E.01848
G1 X172.346 Y126.722 E.22985
G3 X172.002 Y127.198 I-1.195 J-.502 E.0214
G1 X172.119 Y120.384 F30000
G1 F3600
G2 X171.838 Y120.534 I.049 J.431 E.01178
G1 X171.838 Y127.358 E.24638
G3 X171.33 Y127.781 I-1.164 J-.88 E.02408
G1 X171.33 Y120.524 E.26202
G2 X170.823 Y120.562 I-.162 J1.231 E.01852
G1 X170.823 Y128.086 E.27165
G2 X170.315 Y128.43 I-.002 J.544 E.02353
G1 X170.315 Y120.767 E.27668
G3 X169.807 Y120.935 I-.474 J-.579 E.01976
G1 X169.807 Y129.079 E.29405
G3 X169.299 Y129.529 I-1.43 J-1.102 E.02464
G1 X169.299 Y121.267 E.29831
G1 X168.791 Y121.342 E.01853
G1 X168.791 Y129.871 E.30797
G1 X169.125 Y129.676 E.01395
G1 X167.989 Y121.566 F30000
G1 F3600
G1 X168.283 Y121.451 E.01141
G1 X168.283 Y130.142 E.31378
G1 X167.775 Y130.321 E.01945
M73 P0 R37
G1 X167.775 Y121.599 E.31491
G2 X167.267 Y121.484 I-.55 J1.255 E.01891
G1 X167.267 Y130.436 E.32322
G1 X166.76 Y130.513 E.01854
G1 X166.76 Y121.408 E.32875
G2 X166.252 Y121.423 I-.215 J1.321 E.01846
G1 X166.252 Y130.498 E.32769
G1 X166.15 Y130.073 E.0158
G1 X162.572 Y128.284 F30000
G1 F3600
G3 X162.189 Y127.466 I1.92 J-1.399 E.03282
G1 X162.189 Y124.458 E.1086
G3 X162.697 Y123.446 I2.863 J.803 E.04113
G1 X162.697 Y128.476 E.18159
G2 X163.205 Y129.109 I1.889 J-.995 E.02948
G1 X163.205 Y122.813 E.22729
G3 X163.712 Y122.354 I1.439 J1.08 E.02488
G1 X163.712 Y129.566 E.26042
G1 X164.22 Y129.566 E.01834
G1 X164.22 Y121.996 E.27334
G1 X164.728 Y121.767 E.02011
G1 X164.728 Y129.566 E.2816
G1 X165.236 Y129.566 E.01834
G1 X165.236 Y121.586 E.28813
G1 X165.744 Y121.466 E.01884
G1 X165.744 Y129.665 E.29601
G2 X165.465 Y129.566 I-.189 J.091 E.01187
G1 E-.8 F1800
G1 Z.6 F30000
G1 X162.961 Y130.099 Z.6
G1 Z.2
G1 E.8 F1800
;TYPE:Brim
G1 F3600
G1 X136.816 Y130.099 E.94397
G1 X137.36 Y129.624 E.02608
G1 X138.006 Y128.794 E.03797
G1 X138.456 Y127.916 E.03561
G1 X138.744 Y126.951 E.03638
G1 X138.85 Y125.883 E.03874
G1 X138.756 Y124.879 E.03641
G1 X138.545 Y124.157 E.02715
G1 X161.374 Y124.157 E.82427
G1 X161.277 Y124.398 E.00937
G1 X161.071 Y125.461 E.03909
G1 X161.07 Y126.457 E.03595
G1 X161.263 Y127.477 E.03751
G1 X161.678 Y128.501 E.03988
G1 X162.248 Y129.368 E.03745
G1 X162.933 Y130.071 E.03544
G1 X161.758 Y129.544 F30000
G1 F3600
G1 X161.627 Y129.642 E.00591
G1 X138.205 Y129.642 E.84567
G1 X138.101 Y129.594 E.00413
G1 X138.07 Y129.485 E.00413
G1 X138.096 Y129.423 E.00241
G1 X138.418 Y128.992 E.01943
G1 X138.857 Y128.136 E.03476
G1 X139.179 Y127.093 E.03939
G1 X139.303 Y125.94 E.04186
G1 X139.197 Y124.764 E.04265
G1 X139.235 Y124.656 E.00413
G1 X139.334 Y124.614 E.00386
G1 X160.603 Y124.614 E.76796
G1 X160.707 Y124.662 E.00413
G1 X160.738 Y124.778 E.00432
G1 X160.624 Y125.361 E.02147
G1 X160.613 Y126.445 E.03912
G1 X160.812 Y127.55 E.04055
G1 X161.25 Y128.662 E.04312
G1 X161.743 Y129.431 E.03299
G1 X161.753 Y129.505 E.00269
G1 X160.92 Y129.095 F30000
G1 F3600
G1 X160.792 Y129.185 E.00568
G1 X139.057 Y129.185 E.78474
G1 X138.953 Y129.137 E.00413
G1 X138.935 Y128.987 E.00548
G1 X139.297 Y128.26 E.02933
G1 X139.635 Y127.13 E.04259
G1 X139.756 Y126.002 E.04095
G1 X139.697 Y125.219 E.02835
G1 X139.737 Y125.112 E.00413
G1 X139.834 Y125.071 E.00379
G1 X160.049 Y125.071 E.72988
G1 X160.153 Y125.119 E.00413
G1 X160.183 Y125.235 E.00432
G1 X160.156 Y126.428 E.04311
G1 X160.36 Y127.619 E.04361
G1 X160.821 Y128.821 E.04648
G1 X160.911 Y128.981 E.00663
G1 X160.917 Y129.055 E.00269
G1 X160.217 Y128.657 F30000
