; HEADER_BLOCK_START
; generated by Creality_Print V7.0.0.4127 on 2026-01-01 at 21:27:48
; total layer number: 134
; filament_density: 1.25
; filament_diameter: 1.75
; max_z_height: 20.60
; creality_uuid: b6ead68e-07a9-45b6-9e5b-48bcd39e7d5e
; HEADER_BLOCK_END

; MINX = 96.26
; MINY = 116.79
; MINZ = 0.00
; MAXX = 203.74
; MAXY = 183.21
; MAXZ = 20.50

; multicolor_method = 0 
; THUMBNAIL_BLOCK_START

;
; THUMBNAIL_BLOCK_END

; THUMBNAIL_BLOCK_START

;
; THUMBNAIL_BLOCK_END

; external perimeters extrusion width = 0.42mm
; perimeters extrusion width = 0.45mm
; infill extrusion width = 0.45mm
; solid infill extrusion width = 0.42mm
; top infill extrusion width = 0.42mm
; support material extrusion width = 0.40mm
; first layer extrusion width = 0.50mm

; EXECUTABLE_BLOCK_START
EXCLUDE_OBJECT_DEFINE NAME=Корпус.stl_id_0_copy_0 CENTER=150,150 POLYGON=[[96.2612,121.049],[96.5265,119.289],[97.5293,117.818],[99.071,116.928],[100.846,116.795],[199.154,116.795],[200.929,116.928],[202.471,117.818],[203.473,119.289],[203.739,121.049],[203.739,178.951],[203.473,180.711],[202.471,182.182],[200.929,183.072],[199.154,183.205],[100.846,183.205],[99.071,183.072],[97.5293,182.182],[96.5265,180.711],[96.2612,178.951],[96.2612,121.049]]
M73 P0 R51
M106 S0
M106 P2 S0
; max_print_temp = 50,230
;TYPE:Custom
M141 S35;set chamber_temperature
START_PRINT EXTRUDER_TEMP=230 BED_TEMP=50
T0
M204 S2000
M104 S230
G1 Z3 F600
M83
G92 E0
G1 Z1 F600
G90
G21
M83 ; use relative distances for extrusion
G1 E-.8 F1800
G1 Z.2 F30000
M106 S0
;LAYER_CHANGE
;:0.2
;HEIGHT:0.2
;BEFORE_LAYER_CHANGE
;0.2
G92 E0
;TIME_ELAPSED:49.163486
;AFTER_LAYER_CHANGE
;0.2
;_SET_FAN_SPEED_CHANGING_LAYER
SET_VELOCITY_LIMIT ACCEL=1000 ACCEL_TO_DECEL=1000
SET_VELOCITY_LIMIT SQUARE_CORNER_VELOCITY=20
; OBJECT_ID: 74
; printing object Корпус.stl id:0 copy 0
EXCLUDE_OBJECT_START NAME=Корпус.stl_id_0_copy_0
G1 X109.197 Y122.439 Z.6 F30000
G1 Z.2
G1 E.8 F1800
;TYPE:Support
;WIDTH:0.5
G1 F3600
G1 X190.803 Y122.439 E2.94649
G1 X190.803 Y116.742 E.2057
G1 X198.055 Y116.742 E.26184
G2 X197.201 Y117.102 I.36 J2.051 E.03373
G1 X195.809 Y118.603 E.07393
G1 X195.873 Y119.031 E.01565
G1 X203.177 Y123.248 E.3045
G1 X203.58 Y123.09 E.01565
G1 X204.184 Y121.133 E.07393
G2 X203.974 Y119.591 I-3.483 J-.312 E.05667
G1 X206.046 Y119.591 E.07479
G1 X206.046 Y129.136 E.34464
G1 X203.197 Y129.136 E.10285
G1 X203.197 Y170.864 E1.50662
G1 X206.046 Y170.864 E.10285
G1 X206.046 Y180.409 E.34464
G1 X203.974 Y180.409 E.07479
G2 X204.184 Y178.867 I-3.274 J-1.23 E.05667
G1 X203.58 Y176.91 E.07393
G1 X203.177 Y176.752 E.01565
G1 X195.873 Y180.969 E.3045
G1 X195.809 Y181.397 E.01565
G1 X197.201 Y182.898 E.07393
G2 X198.055 Y183.257 I1.214 J-1.69 E.03372
G1 X190.803 Y183.258 E.26183
G1 X190.803 Y177.561 E.2057
G1 X109.197 Y177.561 E2.94649
G1 X109.197 Y183.258 E.2057
G1 X101.945 Y183.258 E.26184
G2 X102.799 Y182.898 I-.36 J-2.051 E.03374
G1 X104.191 Y181.397 E.07393
G1 X104.127 Y180.969 E.01565
G1 X97.02 Y176.865 E.29631
G2 X96.42 Y176.91 I-.282 J.262 E.02493
G1 X95.816 Y178.867 E.07393
G2 X96.026 Y180.409 I3.483 J.312 E.05667
G1 X93.954 Y180.409 E.07479
G1 X93.954 Y170.864 E.34464
G1 X96.803 Y170.864 E.10285
G1 X96.803 Y129.136 E1.50662
G1 X93.954 Y129.136 E.10285
G1 X93.954 Y119.591 E.34464
G1 X96.026 Y119.591 E.07479
G2 X95.816 Y121.133 I3.274 J1.23 E.05667
G1 X96.42 Y123.09 E.07393
G1 X96.823 Y123.248 E.01565
G1 X104.127 Y119.031 E.3045
G1 X104.191 Y118.603 E.01565
G1 X102.799 Y117.102 E.07393
G2 X101.945 Y116.743 I-1.451 J2.254 E.03361
G1 X109.197 Y116.742 E.26183
G1 X109.197 Y122.371 E.20322
G1 X186.106 Y140.53 F30000
G1 F3600
G1 X190.803 Y140.53 E.1696
G1 X190.803 Y159.47 E.68384
G1 X186.106 Y159.47 E.1696
G1 X186.106 Y140.599 E.68136
G1 E-.8 F1800
G1 Z.6 F30000
G1 X204.484 Y178.444 Z.6
G1 Z.2
G1 E.8 F1800
G1 F3600
G1 X204.342 Y177.983 E.01742
G1 X204.342 Y171.275 E.2422
G1 X204.85 Y171.275 E.01834
G1 X204.85 Y179.998 E.31494
G1 X205.357 Y179.998 E.01834
G1 X205.357 Y171.275 E.31494
G1 X205.634 Y171.275 E.00999
G1 X205.634 Y171.813 E.01943
G1 E-.8 F1800
G1 Z.6 F30000
G1 X205.634 Y120.54 Z.6
G1 Z.2
G1 E.8 F1800
M73 P0 R50
G1 F3600
G1 X205.634 Y120.002 E.01943
G1 X205.357 Y120.002 E.00999
G1 X205.357 Y128.725 E.31494
G1 X204.85 Y128.725 E.01834
G1 X204.85 Y120.002 E.31494
G1 X204.452 Y120.002 E.01435
G1 X204.54 Y120.585 E.02127
G1 E-.8 F1800
G1 Z.6 F30000
G1 X202 Y176.956 Z.6
G1 Z.2
G1 E.8 F1800
G1 F3600
G1 X202.31 Y176.777 E.01292
G1 X202.31 Y123.223 E1.93364
G1 X202.818 Y123.516 E.02117
G1 X202.818 Y128.725 E.18807
G1 X203.326 Y128.725 E.01834
G1 X203.326 Y123.631 E.1839
G1 X203.834 Y123.432 E.0197
G1 X203.834 Y128.725 E.1911
G1 X204.342 Y128.725 E.01834
G1 X204.342 Y122.017 E.2422
G1 X204.484 Y121.556 E.01742
G1 E-.8 F1800
G1 Z.6 F30000
G1 X203.539 Y176.452 Z.6
G1 Z.2
G1 E.8 F1800
G1 F3600
G1 X203.834 Y176.568 E.01145
G1 X203.834 Y171.275 E.1911
G1 X203.326 Y171.275 E.01834
G1 X203.326 Y176.369 E.1839
G2 X202.818 Y176.484 I-.208 J.26 E.02159
G1 X202.786 Y128.921 E1.71731
G1 X200.477 Y177.836 F30000
G1 F3600
G1 X200.787 Y177.657 E.01292
G1 X200.787 Y122.343 E1.99716
G1 X201.294 Y122.636 E.02117
G1 X201.294 Y177.364 E1.97599
G1 X201.802 Y177.07 E.02117
G1 X201.802 Y122.93 E1.95481
G1 X201.492 Y122.751 E.01292
G1 X200.589 Y122.229 F30000
G1 F3600
G1 X200.279 Y122.05 E.01292
G1 X200.279 Y177.95 E2.01833
G1 X199.771 Y178.243 E.02117
G1 X199.771 Y121.757 E2.03951
G1 X200.081 Y121.936 E.01292
G1 X198.953 Y178.715 F30000
G1 F3600
G1 X199.263 Y178.537 E.01292
G1 X199.263 Y121.463 E2.06068
G1 X198.755 Y121.17 E.02117
G1 X198.755 Y178.83 E2.08186
G1 X198.247 Y179.123 E.02117
G1 X198.247 Y120.877 E2.10303
G1 X197.739 Y120.584 E.02117
G1 X197.739 Y179.416 E2.1242
G1 X197.429 Y179.595 E.01292
G1 X196.922 Y120.112 F30000
G1 F3600
G1 X197.232 Y120.291 E.01292
G1 X197.232 Y179.709 E2.14538
G1 X196.724 Y180.003 E.02117
G1 X196.724 Y119.997 E2.16655
G1 X196.216 Y119.704 E.02117
G1 X196.216 Y180.296 E2.18772
G1 X195.708 Y180.589 E.02117
G1 X195.708 Y119.411 E2.2089
G1 X196.018 Y119.59 E.01292
G1 X191.215 Y177.3 F30000
G1 F3600
G1 X191.215 Y182.846 E.20024
G1 X191.645 Y182.846 E.01554
G1 X191.645 Y117.154 E2.37189
G1 X192.153 Y117.154 E.01834
G1 X192.153 Y182.846 E2.37189
G1 X192.661 Y182.846 E.01834
M73 P1 R50
G1 X192.661 Y117.154 E2.37189
G1 X193.169 Y117.154 E.01834
G1 X193.169 Y182.846 E2.37189
G1 X193.676 Y182.846 E.01834
G1 X193.676 Y117.154 E2.37189
G1 X194.184 Y117.154 E.01834
G1 X194.184 Y182.846 E2.37189
G1 X194.692 Y182.846 E.01834
G1 X194.692 Y117.154 E2.37189
G1 X195.2 Y117.154 E.01834
G1 X195.2 Y182.846 E2.37189
G1 X195.708 Y182.846 E.01834
G1 X195.708 Y181.894 E.0344
G3 X196.216 Y182.846 I-.259 J.75 E.04286
G1 X196.592 Y182.846 E.01358
G1 X196.371 Y182.608 E.01171
G1 E-.8 F1800
G1 Z.6 F30000
G1 X196.06 Y117.727 Z.6
G1 Z.2
G1 E.8 F1800
G1 F3600
G1 X195.708 Y118.106 E.01871
G1 X195.708 Y117.154 E.0344
G1 X196.216 Y117.154 E.01834
G1 X196.216 Y117.559 E.01464
G1 X196.592 Y117.154 E.01997
G1 X196.444 Y117.154 E.00533
G1 E-.8 F1800
G1 Z.6 F30000
G1 X189.842 Y177.149 Z.6
G1 Z.2
G1 E.8 F1800
G1 F3600
G1 X190.121 Y177.149 E.01009
G1 X190.121 Y159.881 E.62348
G1 X190.629 Y159.881 E.01834
G1 X190.629 Y177.149 E.62348
G1 X191.137 Y177.149 E.01834
G1 X191.215 Y140.27 E1.33157
G1 X189.842 Y140.119 F30000
G1 F3600
G1 X190.121 Y140.119 E.01009
G1 X190.121 Y122.851 E.62348
G1 X190.629 Y122.851 E.01834
G1 X190.629 Y140.119 E.62348
G1 X191.137 Y140.119 E.01834
G1 X191.137 Y122.851 E.62348
G1 X191.215 Y117.154 E.20571
G1 X191.416 Y117.154 E.00729
G1 E-.8 F1800
G1 Z.6 F30000
G1 X186.287 Y177.149 Z.6
G1 Z.2
G1 E.8 F1800
G1 F3600
G1 X186.566 Y177.149 E.01009
G1 X186.566 Y159.881 E.62348
G1 X187.074 Y159.881 E.01834
G1 X187.074 Y177.149 E.62348
G1 X187.582 Y177.149 E.01834
G1 X187.582 Y159.881 E.62348
G1 X188.09 Y159.881 E.01834
G1 X188.09 Y177.149 E.62348
G1 X188.598 Y177.149 E.01834
G1 X188.598 Y159.881 E.62348
G1 X189.106 Y159.881 E.01834
G1 X189.106 Y177.149 E.62348
G1 X189.614 Y177.149 E.01834
G1 X189.614 Y159.881 E.62348
G1 X189.893 Y159.881 E.01009
G1 E-.8 F1800
G1 Z.6 F30000
G1 X188.318 Y140.119 Z.6
G1 Z.2
G1 E.8 F1800
G1 F3600
G1 X188.598 Y140.119 E.01009
G1 X188.598 Y122.851 E.62348
G1 X189.106 Y122.851 E.01834
G1 X189.106 Y140.119 E.62348
G1 X189.614 Y140.119 E.01834
G1 X189.614 Y122.851 E.62348
G1 X189.893 Y122.851 E.01009
G1 X186.287 Y122.851 F30000
G1 F3600
G1 X186.566 Y122.851 E.01009
G1 X186.566 Y140.119 E.62348
G1 X187.074 Y140.119 E.01834
G1 X187.074 Y122.851 E.62348
G1 X187.582 Y122.851 E.01834
G1 X187.582 Y140.119 E.62348
G1 X188.09 Y140.119 E.01834
G1 X188.09 Y122.851 E.62348
G1 X188.369 Y122.851 E.01009
G1 E-.8 F1800
G1 Z.6 F30000
G1 X186.338 Y159.881 Z.6
G1 Z.2
G1 E.8 F1800
G1 F3600
G1 X186.058 Y159.881 E.01009
G1 X186.058 Y177.149 E.62348
G1 X185.551 Y177.149 E.01834
G1 X185.551 Y122.851 E1.9605
G1 X186.058 Y122.851 E.01834
G1 X186.058 Y140.119 E.62348
G1 X186.338 Y140.119 E.01009
G1 X185.322 Y122.851 F30000
G1 F3600
G1 X185.043 Y122.851 E.01009
G1 X185.043 Y177.149 E1.9605
G1 X184.535 Y177.149 E.01834
G1 X184.535 Y122.851 E1.9605
G1 X184.814 Y122.851 E.01009
G1 X166.988 Y177.149 F30000
G1 F3600
G1 X167.267 Y177.149 E.01009
G1 X167.267 Y122.851 E1.9605
G1 X167.775 Y122.851 E.01834
G1 X167.775 Y177.149 E1.9605
G1 X168.283 Y177.149 E.01834
G1 X168.283 Y122.851 E1.9605
G1 X168.791 Y122.851 E.01834
G1 X168.791 Y177.149 E1.9605
G1 X169.299 Y177.149 E.01834
G1 X169.299 Y122.851 E1.9605
G1 X169.807 Y122.851 E.01834
G1 X169.807 Y177.149 E1.9605
G1 X170.315 Y177.149 E.01834
G1 X170.315 Y122.851 E1.9605
G1 X170.823 Y122.851 E.01834
G1 X170.823 Y177.149 E1.9605
G1 X171.33 Y177.149 E.01834
G1 X171.33 Y122.851 E1.9605
G1 X171.838 Y122.851 E.01834
G1 X171.838 Y177.149 E1.9605
G1 X172.346 Y177.149 E.01834
G1 X172.346 Y122.851 E1.9605
G1 X172.854 Y122.851 E.01834
G1 X172.854 Y177.149 E1.9605
M73 P2 R50
G1 X173.362 Y177.149 E.01834
G1 X173.362 Y122.851 E1.9605
G1 X173.87 Y122.851 E.01834
G1 X173.87 Y177.149 E1.9605
G1 X174.378 Y177.149 E.01834
G1 X174.378 Y122.851 E1.9605
G1 X174.885 Y122.851 E.01834
G1 X174.885 Y177.149 E1.9605
G1 X175.393 Y177.149 E.01834
G1 X175.393 Y122.851 E1.9605
G1 X175.901 Y122.851 E.01834
G1 X175.901 Y177.149 E1.9605
G1 X176.409 Y177.149 E.01834
G1 X176.409 Y122.851 E1.9605
G1 X176.917 Y122.851 E.01834
G1 X176.917 Y177.149 E1.9605
G1 X177.425 Y177.149 E.01834
G1 X177.425 Y122.851 E1.9605
G1 X177.933 Y122.851 E.01834
G1 X177.933 Y177.149 E1.9605
M73 P2 R49
G1 X178.44 Y177.149 E.01834
G1 X178.44 Y122.851 E1.9605
G1 X178.948 Y122.851 E.01834
G1 X178.948 Y177.149 E1.9605
G1 X179.456 Y177.149 E.01834
G1 X179.456 Y122.851 E1.9605
G1 X179.964 Y122.851 E.01834
G1 X179.964 Y177.149 E1.9605
G1 X180.472 Y177.149 E.01834
G1 X180.472 Y122.851 E1.9605
G1 X180.98 Y122.851 E.01834
G1 X180.98 Y177.149 E1.9605
G1 X181.488 Y177.149 E.01834
G1 X181.488 Y122.851 E1.9605
G1 X181.996 Y122.851 E.01834
G1 X181.996 Y177.149 E1.9605
G1 X182.503 Y177.149 E.01834
G1 X182.503 Y122.851 E1.9605
G1 X183.011 Y122.851 E.01834
G1 X183.011 Y177.149 E1.9605
G1 X183.519 Y177.149 E.01834
G1 X183.519 Y122.851 E1.9605
G1 X184.027 Y122.851 E.01834
G1 X184.027 Y177.149 E1.9605
G1 X183.748 Y177.149 E.01009
G1 X165.465 Y177.149 F30000
G1 F3600
G1 X165.744 Y177.149 E.01009
G1 X165.744 Y122.851 E1.9605
G1 X166.252 Y122.851 E.01834
G1 X166.252 Y177.149 E1.9605
G1 X166.76 Y177.149 E.01834
G1 X166.76 Y122.851 E1.9605
G1 X167.039 Y122.851 E.01009
G1 X165.515 Y122.851 F30000
G1 F3600
G1 X165.236 Y122.851 E.01009
G1 X165.236 Y177.149 E1.9605
G1 X164.728 Y177.149 E.01834
G1 X164.728 Y122.851 E1.9605
G1 X164.22 Y122.851 E.01834
G1 X164.22 Y177.149 E1.9605
G1 X163.712 Y177.149 E.01834
G1 X163.712 Y122.851 E1.9605
G1 X163.205 Y122.851 E.01834
M73 P3 R49
G1 X163.205 Y177.149 E1.9605
G1 X162.697 Y177.149 E.01834
G1 X162.697 Y122.851 E1.9605
G1 X162.189 Y122.851 E.01834
G1 X162.189 Y177.149 E1.9605
G1 X161.681 Y177.149 E.01834
G1 X161.681 Y122.851 E1.9605
G1 X161.173 Y122.851 E.01834
G1 X161.173 Y177.149 E1.9605
G1 X160.665 Y177.149 E.01834
G1 X160.665 Y122.851 E1.9605
G1 X160.157 Y122.851 E.01834
G1 X160.157 Y177.149 E1.9605
G1 X159.649 Y177.149 E.01834
G1 X159.649 Y122.851 E1.9605
G1 X159.142 Y122.851 E.01834
G1 X159.142 Y177.149 E1.9605
G1 X158.634 Y177.149 E.01834
G1 X158.634 Y122.851 E1.9605
G1 X158.126 Y122.851 E.01834
G1 X158.126 Y177.149 E1.9605
G1 X157.618 Y177.149 E.01834
G1 X157.618 Y122.851 E1.9605
G1 X157.11 Y122.851 E.01834
G1 X157.11 Y177.149 E1.9605
G1 X156.602 Y177.149 E.01834
G1 X156.602 Y122.851 E1.9605
G1 X156.094 Y122.851 E.01834
G1 X156.094 Y177.149 E1.9605
G1 X155.587 Y177.149 E.01834
G1 X155.587 Y122.851 E1.9605
G1 X155.079 Y122.851 E.01834
G1 X155.079 Y177.149 E1.9605
G1 X154.571 Y177.149 E.01834
G1 X154.571 Y122.851 E1.9605
G1 X154.063 Y122.851 E.01834
G1 X154.063 Y177.149 E1.9605
G1 X153.555 Y177.149 E.01834
G1 X153.555 Y122.851 E1.9605
G1 X153.047 Y122.851 E.01834
G1 X153.047 Y177.149 E1.9605
G1 X152.539 Y177.149 E.01834
G1 X152.539 Y122.851 E1.9605
G1 X152.031 Y122.851 E.01834
G1 X152.031 Y177.149 E1.9605
G1 X151.524 Y177.149 E.01834
G1 X151.524 Y122.851 E1.9605
G1 X151.016 Y122.851 E.01834
G1 X151.016 Y177.149 E1.9605
G1 X150.508 Y177.149 E.01834
G1 X150.508 Y122.851 E1.9605
G1 X150 Y122.851 E.01834
G1 X150 Y177.149 E1.9605
G1 X149.492 Y177.149 E.01834
G1 X149.492 Y122.851 E1.9605
G1 X148.984 Y122.851 E.01834
G1 X148.984 Y177.149 E1.9605
G1 X148.476 Y177.149 E.01834
G1 X148.476 Y122.851 E1.9605
G1 X147.969 Y122.851 E.01834
G1 X147.969 Y177.149 E1.9605
G1 X147.461 Y177.149 E.01834
G1 X147.461 Y122.851 E1.9605
G1 X146.953 Y122.851 E.01834
G1 X146.953 Y177.149 E1.9605
M73 P4 R49
G1 X146.445 Y177.149 E.01834
G1 X146.445 Y122.851 E1.9605
G1 X145.937 Y122.851 E.01834
G1 X145.937 Y177.149 E1.9605
G1 X145.429 Y177.149 E.01834
G1 X145.429 Y122.851 E1.9605
G1 X144.921 Y122.851 E.01834
G1 X144.921 Y177.149 E1.9605
G1 X144.413 Y177.149 E.01834
G1 X144.413 Y122.851 E1.9605
G1 X143.906 Y122.851 E.01834
G1 X143.906 Y177.149 E1.9605
G1 X143.398 Y177.149 E.01834
G1 X143.398 Y122.851 E1.9605
G1 X142.89 Y122.851 E.01834
G1 X142.89 Y177.149 E1.9605
G1 X142.382 Y177.149 E.01834
G1 X142.382 Y122.851 E1.9605
M73 P4 R48
G1 X141.874 Y122.851 E.01834
G1 X141.874 Y177.149 E1.9605
G1 X141.366 Y177.149 E.01834
G1 X141.366 Y122.851 E1.9605
G1 X140.858 Y122.851 E.01834
G1 X140.858 Y177.149 E1.9605
G1 X140.351 Y177.149 E.01834
G1 X140.351 Y122.851 E1.9605
G1 X139.843 Y122.851 E.01834
G1 X139.843 Y177.149 E1.9605
G1 X139.335 Y177.149 E.01834
G1 X139.335 Y122.851 E1.9605
G1 X138.827 Y122.851 E.01834
G1 X138.827 Y177.149 E1.9605
G1 X138.319 Y177.149 E.01834
G1 X138.319 Y122.851 E1.9605
G1 X137.811 Y122.851 E.01834
G1 X137.811 Y177.149 E1.9605
G1 X137.303 Y177.149 E.01834
G1 X137.303 Y122.851 E1.9605
G1 X136.795 Y122.851 E.01834
G1 X136.795 Y177.149 E1.9605
G1 X136.288 Y177.149 E.01834
G1 X136.288 Y122.851 E1.9605
G1 X135.78 Y122.851 E.01834
G1 X135.78 Y177.149 E1.9605
G1 X135.272 Y177.149 E.01834
G1 X135.272 Y122.851 E1.9605
G1 X134.764 Y122.851 E.01834
G1 X134.764 Y177.149 E1.9605
G1 X134.485 Y177.149 E.01009
G1 X132.961 Y177.149 F30000
G1 F3600
G1 X133.24 Y177.149 E.01009
G1 X133.24 Y122.851 E1.9605
G1 X133.748 Y122.851 E.01834
G1 X133.748 Y177.149 E1.9605
G1 X134.256 Y177.149 E.01834
G1 X134.256 Y122.851 E1.9605
G1 X134.535 Y122.851 E.01009
G1 X124.327 Y177.149 F30000
G1 F3600
G1 X124.607 Y177.149 E.01009
G1 X124.607 Y122.851 E1.9605
G1 X125.115 Y122.851 E.01834
G1 X125.115 Y177.149 E1.9605
G1 X125.622 Y177.149 E.01834
G1 X125.622 Y122.851 E1.9605
G1 X126.13 Y122.851 E.01834
M73 P5 R48
G1 X126.13 Y177.149 E1.9605
G1 X126.638 Y177.149 E.01834
G1 X126.638 Y122.851 E1.9605
G1 X127.146 Y122.851 E.01834
G1 X127.146 Y177.149 E1.9605
G1 X127.654 Y177.149 E.01834
G1 X127.654 Y122.851 E1.9605
G1 X128.162 Y122.851 E.01834
G1 X128.162 Y177.149 E1.9605
G1 X128.67 Y177.149 E.01834
G1 X128.67 Y122.851 E1.9605
G1 X129.177 Y122.851 E.01834
G1 X129.177 Y177.149 E1.9605
G1 X129.685 Y177.149 E.01834
G1 X129.685 Y122.851 E1.9605
G1 X130.193 Y122.851 E.01834
G1 X130.193 Y177.149 E1.9605
G1 X130.701 Y177.149 E.01834
G1 X130.701 Y122.851 E1.9605
